src/assets/images/bg/roadmap-arrow-shape.svg

<svg width="50" height="1584" viewBox="0 0 50 1584" fill="none" xmlns="http://www.w3.org/2000/svg">
<path d="M0 0V0.3L25 13.5L50 0.3V0H0Z" fill="white" fill-opacity="0.1"/>
<path d="M25 825L50 811.8V10L25 23.2L0 10V811.8L25 825Z" fill="white" fill-opacity="0.1"/>
<path d="M25 1538L50 1524.8V832L25 845.2L0 832V1524.8L25 1538Z" fill="white" fill-opacity="0.1"/>
<path d="M25 1561L50 1547.8V1535L25 1548.2L0 1535V1547.8L25 1561Z" fill="white" fill-opacity="0.08"/>
<path d="M25 1584L50 1570.8V1558L25 1571.2L0 1558V1570.8L25 1584Z" fill="white" fill-opacity="0.05"/>
<path d="M21.44 430.484C22.6867 430.484 23.7647 431.012 24.674 432.068C24.9527 432.39 25.2313 432.742 25.51 433.124L28.92 437.854L28.92 430.484L32 430.484L32 442.364L27.82 442.364L22.1 434.444L21 434.444C20.12 434.444 19.68 434.884 19.68 435.764L19.68 441.924L16.6 441.924L16.6 434.884C16.6 433.344 16.952 432.229 17.656 431.54C18.3453 430.836 19.46 430.484 21 430.484L21.44 430.484ZM20.78 419.927C19.9 419.927 19.46 420.367 19.46 421.247L19.46 423.667C19.46 424.547 19.9 424.987 20.78 424.987L27.82 424.987C28.7 424.987 29.14 424.547 29.14 423.667L29.14 421.247C29.14 420.367 28.7 419.927 27.82 419.927L20.78 419.927ZM27.82 415.967C29.36 415.967 30.482 416.319 31.186 417.023C31.8753 417.712 32.22 418.827 32.22 420.367L32.22 424.547C32.22 426.087 31.8753 427.209 31.186 427.913C30.482 428.602 29.36 428.947 27.82 428.947L20.78 428.947C19.24 428.947 18.1253 428.602 17.436 427.913C16.732 427.209 16.38 426.087 16.38 424.547L16.38 420.367C16.38 418.827 16.732 417.712 17.436 417.023C18.1253 416.319 19.24 415.967 20.78 415.967L27.82 415.967ZM21.44 402.769C22.6867 402.769 23.7647 403.297 24.674 404.353C24.9527 404.676 25.2313 405.028 25.51 405.409L28.92 410.139L28.92 402.769L32 402.769L32 414.649L27.82 414.649L22.1 406.729L21 406.729C20.12 406.729 19.68 407.169 19.68 408.049L19.68 414.209L16.6 414.209L16.6 407.169C16.6 405.629 16.952 404.514 17.656 403.825C18.3453 403.121 19.46 402.769 21 402.769L21.44 402.769ZM32 398.482L20.01 398.482L20.89 401.012L18.36 402.112L16.6 398.042L16.6 394.522L32 394.522L32 398.482Z" fill="white" fill-opacity="0.2"/>
<path d="M21.44 1199.51C22.6867 1199.51 23.7647 1200.04 24.674 1201.1C24.9527 1201.42 25.2313 1201.77 25.51 1202.15L28.92 1206.88L28.92 1199.51L32 1199.51L32 1211.39L27.82 1211.39L22.1 1203.47L21 1203.47C20.12 1203.47 19.68 1203.91 19.68 1204.79L19.68 1210.95L16.6 1210.95L16.6 1203.91C16.6 1202.37 16.952 1201.26 17.656 1200.57C18.3453 1199.87 19.46 1199.51 21 1199.51L21.44 1199.51ZM20.78 1188.96C19.9 1188.96 19.46 1189.4 19.46 1190.28L19.46 1192.7C19.46 1193.58 19.9 1194.02 20.78 1194.02L27.82 1194.02C28.7 1194.02 29.14 1193.58 29.14 1192.7L29.14 1190.28C29.14 1189.4 28.7 1188.96 27.82 1188.96L20.78 1188.96ZM27.82 1185C29.36 1185 30.482 1185.35 31.186 1186.05C31.8753 1186.74 32.22 1187.86 32.22 1189.4L32.22 1193.58C32.22 1195.12 31.8753 1196.24 31.186 1196.94C30.482 1197.63 29.36 1197.98 27.82 1197.98L20.78 1197.98C19.24 1197.98 18.1253 1197.63 17.436 1196.94C16.732 1196.24 16.38 1195.12 16.38 1193.58L16.38 1189.4C16.38 1187.86 16.732 1186.74 17.436 1186.05C18.1253 1185.35 19.24 1185 20.78 1185L27.82 1185ZM21.44 1171.8C22.6867 1171.8 23.7647 1172.33 24.674 1173.38C24.9527 1173.71 25.2313 1174.06 25.51 1174.44L28.92 1179.17L28.92 1171.8L32 1171.8L32 1183.68L27.82 1183.68L22.1 1175.76L21 1175.76C20.12 1175.76 19.68 1176.2 19.68 1177.08L19.68 1183.24L16.6 1183.24L16.6 1176.2C16.6 1174.66 16.952 1173.54 17.656 1172.86C18.3453 1172.15 19.46 1171.8 21 1171.8L21.44 1171.8ZM21.44 1158.82C22.6867 1158.82 23.7647 1159.35 24.674 1160.41C24.9527 1160.73 25.2313 1161.08 25.51 1161.46L28.92 1166.19L28.92 1158.82L32 1158.82L32 1170.7L27.82 1170.7L22.1 1162.78L21 1162.78C20.12 1162.78 19.68 1163.22 19.68 1164.1L19.68 1170.26L16.6 1170.26L16.6 1163.22C16.6 1161.68 16.952 1160.57 17.656 1159.88C18.3453 1159.17 19.46 1158.82 21 1158.82L21.44 1158.82Z" fill="white" fill-opacity="0.2"/>
</svg>

<svg version="1.1" id="Layer_1" xmlns="http://www.w3.org/2000/svg" x="0" y="0" viewBox="0 0 50 1584" style="enable-background:new 0 0 50 1584" xml:space="preserve"><style>.st0{fill:#fff;fill-opacity:.1}.st2{fill:#616161}.st3{font-family:&apos;Roboto-Regular&apos;}.st4{font-size:22px}</style><path class="st0" d="M0 0v.3l25 13.2L50 .3V0H0z"/><path class="st0" d="m25 825 25-13.2V10L25 23.2 0 10v801.8L25 825zm0 713 25-13.2V832l-25 13.2L0 832v692.8l25 13.2z"/><path d="m25 1561 25-13.2V1535l-25 13.2L0 1535v12.8l25 13.2z" style="fill:#fff;fill-opacity:8.000000e-02"/><text transform="rotate(-90 622.251 590.059)" class="st2 st3 st4">2023</text><text transform="rotate(-90 250.751 220.559)" class="st2 st3 st4">2023</text><path d="m25 1584 25-13.2V1558l-25 13.2L0 1558v12.8l25 13.2z" style="fill:#fff;fill-opacity:5.000000e-02"/></svg>
